X: 20134
T: Jimmy's Trip To Clonmel
R: reel
M: 4/4
K: Edorian
|:ga|b2 bg ab ag|e3d eage|dB ~B2 (3efg dB|~A3g gedB|
DEED G2(3BAG|dBAG eage|deed ~g3B|ABGE G2:|
|:GE|D2 DE GedB|A3B AGEG|BG ~G2 DEGB|gedBA2 ga|
(3bag ag e2de|gedB d3e|dBAG eggB|ABGE G2:|

